X:79
T:Olain
Z: id:dc-jig-53
M:6/8
L:1/8
K:D Mixtlydian
f|g2fg agfe|dBAc dfed|cdef gFcA|feae fddc|A2c2 B2eg|fgfe faf|ed:|!